!!!COM:	la Rue, Pierre de
!!!CDT:	~1452///-1518/11/20
!!!OPR:	Missa Alleluia
!!!ONM:	1
!!!OTL:	Kyrie
!!!AGN:	Mass; Kyrie
!!!SCT:	Rue1001a
!!!SCA:	Rue1001a
!!!voices:	5
!!!voices-OPR:	5
**kern	**kern	**kern	**kern	**kern
*staff5	*staff4	*staff3	*staff2	*staff1
*Ivox	*Ivox	*Ivox	*Ivox	*Ivox
*I"Bassus2	*I"Bassus1	*I"Tenor	*I"Cantus	*I"Discantus
*I'B2	*I'B1	*I'T	*I'Cn	*I'D
*>[A,B,C]	*>[A,B,C]	*>[A,B,C]	*>[A,B,C]	*>[A,B,C]
*>A	*>A	*>A	*>A	*>A
*clefF4	*clefF4	*clefGv2	*clefGv2	*clefG2
*k[b-]	*k[b-]	*k[b-]	*k[b-]	*k[b-]
*M3/1	*M3/1	*M3/1	*M3/1	*M3/1
*met(O)	*met(O)	*met(O)	*met(O)	*met(O)
!!section: Kyrie I
!!!OMD: Kyrie I
*	*	*rscale:1/2	*	*
=1-	=1-	=1-	=1-	=1-
!	!	!LO:TX:Z=8:X=-60:t=Crescit in duplo	!	!
0.r	0.r	0.r	1F	0.r
.	.	.	1B-	.
.	.	.	1B-	.
=2	=2	=2	=2	=2
0.r	0.r	0.r	1A	1f
.	.	.	0G	1b-
.	.	.	.	1b-
=3	=3	=3	=3	=3
0.r	1r	0.r	1c	2a/
.	.	.	.	1g
.	1r	.	2B-\	.
.	.	.	2.c\	4f/
.	.	.	.	4e/
.	1GG	.	.	1d
.	.	.	4Bni\	.
.	.	.	2Bni\	.
=4	=4	=4	=4	=4
0.r	1C	0.r	0c	2r
.	.	.	.	2e/
.	1C	.	.	2c/
.	.	.	.	2e/
.	1BB-	.	2r	1d
.	.	.	2G/	.
=5	=5	=5	=5	=5
1r	2.AA/	0.r	4A/	1c
.	.	.	4B-\	.
.	.	.	4c\	.
.	4BB-/	.	4d\	.
1r	2C/	.	2e\	1r
.	2D\	.	2.d\	.
1FF	1AA	.	.	1a
.	.	.	4c\	.
.	.	.	2c\	.
=6	=6	=6	=6	=6
1BB-	2.D\	0.r	1.d	2f/
.	.	.	.	2g/
.	4E\	.	.	.
1BB-	2F\	.	.	2f/
.	2.G\	.	2B-\	2d/
1AA	.	.	1c	1a
.	4F#i\	.	.	.
.	2F#i\	.	.	.
=7	=7	=7	=7	=7
0GG	2G\	0.r	1B-	1b-
.	4F\	.	.	.
.	4E\	.	.	.
.	1D	.	2r	2b-\
.	.	.	2B-\	1g
1C	1C	.	2c\	.
.	.	.	2A/	4f/
.	.	.	.	4e/
=8	=8	=8	=8	=8
2BB-/	1r	0.r	2B-\	2d/
1C	.	.	2G/	2e/
.	1r	.	2A/	2c/
2GG/	.	.	2.G/	2d/
1AA	1C	.	.	1a
.	.	.	4F/	.
.	.	.	2F/	.
=9	=9	=9	=9	=9
1GG	1D	0.r	2G/	2b-\
.	.	.	1d	2g/
1r	2BB-/	.	.	2b-\
.	2.F\	.	4c\	2.a/
.	.	.	4B-\	.
1FF	.	.	2.A/	.
.	4E\	.	.	4g/
.	4D\	.	.	4f/
.	4C/	.	4G/	4e/
=10	=10	=10	=10	=10
1BB-	2BB-/	1r	1.B-	0d
.	1D	.	.	.
1BB-	.	0F	.	.
.	2BB-/	.	4A/	.
.	.	.	4G/	.
1AA	1C	.	1F	2r
.	.	.	.	2a/
=11	=11	=11	=11	=11
0.GG	0.D	0B-	0G	2b-\
.	.	.	.	1g
.	.	.	.	4f/
.	.	.	.	4e/
.	.	[1B-	2r	[1d
.	.	.	4G/	.
.	.	.	4A/	.
=12	=12	=12	=12	=12
0.r	1.D	1B-]	4B-\	1d]
.	.	.	4c\	.
.	.	.	4d\	.
.	.	.	4e\	.
.	.	0A	2f\	1a
.	2C/	.	2.g\	.
.	1D	.	.	1a
.	.	.	4f#i\	.
.	.	.	2f#i\	.
=13	=13	=13	=13	=13
2r	0.r	[0.G	2.g\	2b-\
2C/	.	.	.	2.g/
.	.	.	4f\	.
2BB-/	.	.	2d\	.
.	.	.	.	4f/
1C	.	.	2.e\	4e/
.	.	.	.	4d/
.	.	.	.	2.c/
.	.	.	4d\	.
4BB-/	.	.	[2c\	.
4AA/	.	.	.	4d/
=14	=14	=14	=14	=14
1GG	1D	1G]	2c\]	1d
.	.	.	2Bni\	.
2.AA/	2C/	0c	1c	2r
.	2.AA/	.	.	2.c/
4BB-/	.	.	.	.
2C/	.	.	1r	.
.	4BB-/	.	.	4d/
2AA/	2C/	.	.	2e/
=15	=15	=15	=15	=15
1D	1GG	1B-	1r	2.d/
.	.	.	.	4e/
1C	0C	0c	2.c\	2e/
.	.	.	.	1c
.	.	.	4d\	.
2AA/	.	.	2e\	.
2FF/	.	.	[2f\	2a/
=16	=16	=16	=16	=16
1GG	1BB-	1G	4f\]	1b-
.	.	.	4e\	.
.	.	.	2e\	.
0FF	2C/	0A	2f\	2a/
.	2D\	.	2d\	2.f/
.	2C/	.	4f\	.
.	.	.	4e\	4g/
.	2F\	.	4d\	2a/
.	.	.	4c\	.
=17	=17	=17	=17	=17
1r	2G\	[0.Gl	2B-\	2b-\
.	2E\	.	2c\	1g
0GG	0D	.	2d\	.
.	.	.	1c	4f/
.	.	.	.	4e/
.	.	.	.	2.d/
.	.	.	2Bni\	.
.	.	.	.	4e/
=18	=18	=18	=18	=18
0.Cl	0.Cl	0.G]	0.cl	0.el
!!LO:LB:i:g=z
*	*	*rscale:1	*	*
=19||	=19||	=19||	=19||	=19||
*>B	*>B	*>B	*>B	*>B
*clefF4	*clefF4	*clefGv2	*clefGv2	*clefG2
*k[b-]	*k[b-]	*k[b-]	*k[b-]	*k[b-]
*M2/1	*M2/1	*M2/1	*M2/1	*M2/1
*met(C|)	*met(C|)	*met(O)	*met(C|)	*met(C|)
!!section: Christe
!!!OMD: Christe
*	*	*rscale:1/4	*	*
!	!	!LO:N:vis=0	!	!
0r	[0F	0r	1.c	1.f
.	.	.	4B-\	4e/
.	.	.	4A/	4d/
=20	=20	=20-	=20	=20
0r	0F]	0ryy	2d\	2.f/
.	.	.	4c\	.
.	.	.	4B-\	4g/
.	.	.	1A	1a
=21	=21	=21-	=21	=21
1r	0B-	0ryy	1G	0d
[1BB-	.	.	[1d	.
=22	=22	=22-	=22	=22
2BB-/]	0B-	0ryy	2d\]	1r
4AA/	.	.	4c\	.
4GG/	.	.	4B-\	.
2BB-/	.	.	2.d\	[1f
2C/	.	.	.	.
.	.	.	4e\	.
=23	=23	=23-	=23	=23
[0D	[0A	0ryy	1.f	2f/]
.	.	.	.	4e/
.	.	.	.	4d/
.	.	.	.	2.f/
.	.	.	4e\	.
.	.	.	4d\	4g/
=24	=24	=24-	=24	=24
0D]	0A]	0ryy	2f\	1a
.	.	.	2d\	.
.	.	.	1f	1d
=25	=25	=25	=25	=25
!	!	!LO:N:vis=1	!	!
0GG	1.G	0r	2.g\	2r
.	.	.	.	1b-
.	.	.	4f\	.
.	.	.	1d	.
.	4F\	.	.	4a/
.	4E\	.	.	4g/
=26	=26	=26-	=26	=26
0r	2F\	0ryy	2r	2a/
.	2G\	.	2d\	2b-\
.	2C/	.	2e\	2cc\
.	[2F\	.	[2c\	[2a/
=27	=27	=27-	=27	=27
!	!	!LO:N:vis=1	!	!
0r	2F\]	0r	2c\]	2a/]
.	4E\	.	2.f\	4g/
.	4D\	.	.	4f/
.	2.F\	.	.	2a/
.	.	.	4e\	.
.	.	.	[2d\	4g/
.	4G\	.	.	4f/
=28	=28	=28-	=28	=28
0r	1A	0ryy	2d\]	1e
.	.	.	2c#i\	.
.	2r	.	[1d	2d/
.	[2D\	.	.	[2f/
=29	=29	=29-	=29	=29
!	!	!LO:N:vis=1	!	!
0r	2D\]	[y0F	1d]	2f/]
.	4C/	.	.	4e/
.	4BB-/	.	.	4d/
.	2.D\	.	1d	2.f/
.	4E\	.	.	4g/
=30	=30	=30-	=30	=30
1r	1F	0F]yy	1c	1a
2r	2BB-/	.	1B-	1d
[2BB-/	[2D\	.	.	.
=31	=31	=31	=31	=31
!	!	!LO:N:vis=1	!	!
2BB-/]	2D\]	[y0B-	1d	0r
4AA/	4C/	.	.	.
4GG/	4BB-/	.	.	.
2BB-/	2D\	.	1r	.
2C/	2E\	.	.	.
=32	=32	=32-	=32	=32
2D\	2F\	0B-]yy	0r	0r
1GG	1BB-	.	.	.
[2BB-/	[2D\	.	.	.
=33	=33	=33-	=33	=33
!	!	!LO:N:vis=1	!	!
2BB-/]	2D\]	[y0B-	[0d	1r
4AA/	4C/	.	.	.
4GG/	4BB-/	.	.	.
2.BB-/	2.D\	.	.	2r
.	.	.	.	[2f/
4C/	4E\	.	.	.
=34	=34	=34-	=34	=34
[0D	0F	0B-]yy	0d]	2f/]
.	.	.	.	4e/
.	.	.	.	4d/
.	.	.	.	2f/
.	.	.	.	2g/
=35	=35	=35-	=35	=35
!	!	!LO:N:vis=1	!	!
0D_	0r	[y0A	[0d	2a/
.	.	.	.	1d
.	.	.	.	[2f/
=36	=36	=36-	=36	=36
0D]	1r	0A]yy	0d]	2f/]
.	.	.	.	4e/
.	.	.	.	4d/
.	1D	.	.	1f
=37	=37	=37	=37	=37
!	!	!LO:N:vis=0	!	!
1GG	2D\	[y0G	1B-	0g
.	1E	.	.	.
[1C	.	.	2.c\	.
.	4D\	.	.	.
.	4C/	.	4B-\	.
=38	=38	=38-	=38	=38
2C/]	2E\	0G_yy	2G/	0r
4BB-/	2F\	.	2c\	.
4AA/	.	.	.	.
2GG/	2G\	.	2B-\	.
[2G\	[2C/	.	2c\	.
=39	=39	=39-	=39	=39
2G\]	2C/]	0G_yy	2G/	0r
1C	1E	.	2.c\	.
.	.	.	4B-\	.
4BB-/	4D\	.	4G/	.
4AA/	4C/	.	4A/	.
=40	=40	=40-	=40	=40
0GG	2.E\	0G]yy	2B-\	1r
.	.	.	1c	.
.	4F\	.	.	.
.	1G	.	.	1d
.	.	.	2Bni\	.
=41	=41	=41-	=41	=41
!	!	!LO:N:vis=1	!	!
0r	2r	[y0c	1c	1.e
.	1C	.	.	.
.	.	.	1r	.
.	4BB-/	.	.	4d/
.	4AA/	.	.	4c/
=42	=42	=42-	=42	=42
0r	2.C/	0c]yy	1r	2e/
.	.	.	.	2f/
.	4D\	.	.	.
.	2E\	.	2r	2g/
.	2AA/	.	[2e\	2c/
=43	=43	=43	=43	=43
0GG	0BB-	0B-	2e\]	0g
.	.	.	4d\	.
.	.	.	4c\	.
.	.	.	2d\	.
.	.	.	2e\	.
=44	=44	=44-	=44	=44
!	!	!LO:N:vis=1	!	!
2FF/	1AA	[y0c	1f	2a/
1AA	.	.	.	1cc
.	1FF	.	2f\	.
4GG/	.	.	[2c\	4b-\
4FF/	.	.	.	4a/
=45	=45	=45-	=45	=45
2.AA/	0C	0c]yy	2c\]	2a/
.	.	.	4B-\	4g/
4BB-/	.	.	4A/	4f/
1C	.	.	1G	2.e/
.	.	.	.	4d/
=46	=46	=46-	=46	=46
1FF	2r	0A	2r	0f
.	2C/	.	2F/	.
2r	1F	.	1c	.
2FF/	.	.	.	.
=47	=47	=47-	=47	=47
!	!	!LO:N:vis=1	!	!
1C	1E	[y0G	1.c	2r
.	.	.	.	2c/
[1C	[1E	.	.	2.g/
.	.	.	4B-\	.
.	.	.	4A/	4c/
=48	=48	=48-	=48	=48
2C/]	2E\]	0G]yy	2G/	2g/
4BB-/	4D\	.	2c\	2a/
4AA/	4C/	.	.	.
1GG	2.BB-/	.	2d\	1b-
.	.	.	2e\	.
.	4AA/	.	.	.
*	*	*rscale:1	*	*
=49	=49	=49	=49	=49
*	*	*M2/1	*	*
*	*	*met(C|)	*	*
0FF	1.C	1.A	1.f	1a
.	.	.	.	1r
.	2BB-/	2B-\	4e\	.
.	.	.	4d\	.
=50	=50	=50	=50	=50
0r	1AA	1c	2c\	2r
.	.	.	1e	2.c/
.	2GG/	[y1B-	.	.
.	.	.	.	4d/
.	[2BB-/	.	[2d\	4e/
.	.	.	.	4f/
=51	=51	=51	=51	=51
0r	2BB-/]	2B-\]yy	2d\]	2g/
.	2AA/	2c\	2.c\	2a/
.	1GG	1d	.	1b-
.	.	.	4B-\	.
.	.	.	2B-\	.
=52	=52	=52	=52	=52
2r	2r	0c	2c\	1a
2FF/	1C	.	2A/	.
[1C	.	.	1G	1r
.	[2E-i\	.	.	.
=53	=53	=53	=53	=53
2C/]	2E-\]	1A	0r	2r
4BB-/	4D\	.	.	2c/
4AA/	4C/	.	.	.
2.GG/	2.BB-/	1B-	.	2.g/
4AA/	4C/	.	.	4f/
=54	=54	=54	=54	=54
2BB-/	2D\	0G	2r	2g/
2C/	2E-i\	.	2c\	2a/
2BB-/	2D\	.	2d\	2.b-\
2C/	[2C/	.	2e\	.
.	.	.	.	4g/
=55	=55	=55	=55	=55
2FF/	2C/]	[0Fl	2f\	2a/
1BB-	2D\	.	1d	2f/
.	1BB-	.	.	1b-
4AA/	.	.	4c\	.
4GG/	.	.	4B-\	.
=56	=56	=56	=56	=56
[0FFl	2r	0F_	2d\	[0al
.	2C/	.	2c\	.
.	1D	.	2A/	.
.	.	.	2F/	.
=57	=57	=57	=57	=57
0FF]	0Cl	0F]	0cl	0a]
!!LO:LB:i:g=z
*	*	*rscale:1	*	*
=58||	=58||	=58||	=58||	=58||
*>C	*>C	*>C	*>C	*>C
*clefF4	*clefF4	*clefGv2	*clefGv2	*clefG2
*k[b-]	*k[b-]	*k[b-]	*k[b-]	*k[b-]
*M3/1	*M3/1	*M3/1	*M3/1	*M3/1
*met(O|)	*met(O|)	*met(O|)	*met(O|)	*met(O|)
!!section: Kyrie II
!!!OMD: Kyrie II
0BB-	0F	0.r	0d	0f
1AA	1F	.	1c	1a
=59	=59	=59	=59	=59
0GG	1G	0.r	2.B-\	1.b-
.	.	.	4c\	.
.	1.B-	.	2d\	.
.	.	.	1d	4a/
.	.	.	.	4g/
2.BB-/	.	.	.	2f/
.	4A\	.	4c\	2g/
4C/	4G\	.	4B-\	.
=60	=60	=60	=60	=60
2D\	2F\	0.r	2A/	2d/
2GG/	2G\	.	2B-\	1g
1D	1D	.	1A	.
.	.	.	.	2f/
2BB-/	1r	.	1G	2d/
[2C/	.	.	.	[2e/
=61	=61	=61	=61	=61
4C/]	1r	0.r	2r	4e/]
4BB-/	.	.	.	4d/
4AA/	.	.	1c	4c/
4GG/	.	.	.	4B-/
1FF	0F	.	.	1A
.	.	.	2c\	.
1BB-	.	.	1d	1r
=62	=62	=62	=62	=62
1AA	1F	1r	1c	1a
2GG/	1G	1r	2.B-\	1.b-
1BB-	.	.	.	.
.	.	.	4c\	.
.	[1B-	1F	2d\	.
[2BB-/	.	.	[2d\	4a/
.	.	.	.	4g/
=63	=63	=63	=63	=63
2BB-/]	2B-\]	1B-	2d\]	2f/
1BB-	4A\	.	4c\	2g/
.	4G\	.	4B-\	.
.	2F\	1B-	0d	2d/
2GG/	2G\	.	.	1g
1D	1D	1A	.	.
.	.	.	.	2f/
=64	=64	=64	=64	=64
2BB-/	1r	0G	1r	2d/
2.C/	.	.	.	2.e/
.	1r	.	2r	.
4BB-/	.	.	.	4d/
4AA/	.	.	1c	4c/
4GG/	.	.	.	4B-/
2FF/	1F	1c	.	1A
2AA/	.	.	2A/	.
=65	=65	=65	=65	=65
2GG/	2G\	2B-\	2B-\	2r
2AA/	2E\	1c	1A	1a
2FF/	2F\	.	.	.
2BB-/	2D\	2G/	2d\	2b-\
2AA/	1C	1A	2e\	2cc\
2FF/	.	.	2f\	2a/
=66	=66	=66	=66	=66
0.GG	2.BB-/	0.G	2B-\	2.b-\
.	.	.	2.d\	.
.	4C/	.	.	4a/
.	0D	.	.	4b-\
.	.	.	4c\	4a/
.	.	.	4B-\	4g/
.	.	.	4A/	4f/
.	.	.	1B-	1g
=67	=67	=67	=67	=67
1r	2r	0.r	0A	0a
.	2.D\	.	.	.
1D	.	.	.	.
.	4E\	.	.	.
.	4F\	.	.	.
.	4G\	.	.	.
2AA/	2A\	.	2r	2r
[2F\	2D\	.	[2F/	[2d/
=68	=68	=68	=68	=68
2F\]	1F	1r	4F/]	4d/]
.	.	.	4G/	4e/
4E\	.	.	4A/	4f/
4D\	.	.	4B-\	4g/
1C	1E	1r	4c\	4a/
.	.	.	4d\	4b-\
.	.	.	4e\	4cc\
.	.	.	2c\	4a/
[1BB-	[1D	1F	.	2.b-\
.	.	.	4d\	.
.	.	.	[2f\	.
.	.	.	.	4a/
=69	=69	=69	=69	=69
1BB-]	0D]	1B-	4f\]	2f/
.	.	.	4e\	.
.	.	.	4d\	2g/
.	.	.	4c\	.
2BB-/	.	1B-	2B-\	2d/
2GG/	.	.	2.d\	1g
1D	2r	1A	.	.
.	.	.	4c\	.
.	[2D\	.	2A/	2f/
=70	=70	=70	=70	=70
2GG/	2D\]	0G	2B-\	2d/
2.C/	2.C/	.	1c	2.e/
4BB-/	4D\	.	.	4d/
4AA/	2E\	.	1c	4c/
4GG/	.	.	.	4B-/
1FF	1F	1c	.	2A/
.	.	.	2A/	2a/
=71	=71	=71	=71	=71
2r	2G\	2B-\	2B-\	2g/
2.FF/	2F\	1c	2A/	2.a/
.	1C	.	0c	.
4GG/	.	.	.	4g/
4AA/	.	2A/	.	1f
4BB-/	.	.	.	.
1C	1r	1G	.	.
.	.	.	.	2e/
=72	=72	=72	=72	=72
2FF/	1.C	2.A/	2r	2f/
1AA	.	.	2.c\	4c/
.	.	4B-\	.	4d/
.	.	2c\	.	4e/
.	.	.	4d\	4f/
2.GG/	4BB-/	2.B-\	4e\	4g/
.	4C/	.	4f\	4a/
.	2D\	.	2g\	1b-
4AA/	.	4c\	.	.
2BB-/	2BB-/	2d\	[2f\	.
=73	=73	=73	=73	=73
2FF/	1C	1c	4f\]	2a/
.	.	.	4e\	.
2C/	.	.	2e\	1g
2D\	1r	2A/	2f\	.
2BB-/	.	2B-\	2d\	2.f/
1C	1r	1G	1c	.
.	.	.	.	4e/
.	.	.	.	2e/
=74	=74	=74	=74	=74
*	*	*	*^	*
0.FFl	0.Cl	0.Fl	0.Al\	0.cl/	0.fl
*	*	*	*v	*v	*
==	==	==	==	==
*-	*-	*-	*-	*-
!!!RDF**kern: l=long note in original notation
!!!RDF**kern: i=editorial accidental
!!!RDF**kern: V=start of tuplet marker
!!!RDF**kern: Z=end of tuplet marker
!!!ENC:	Megan K. Eagen 1/11/2012
!!!END:	2012/11/18/
!!!EED:	Jesse Rodin
!!!EEV:	2013/04/27/
!!!ONB:	Translated from MusicXML and edited on 2012/12/15/ by Craig Sapp
!!muse2ps: T^@{OPR}^u^@{ONM}{. }@{OTL}^C^@{COM}^i2I150v85,85,85,85,130Q8
